mobile/24/svg/credit-card-24.svg

<svg width="24" height="24" viewBox="0 0 24 24" fill="none" xmlns="http://www.w3.org/2000/svg">
<path d="M9 13.125H6V14.875H9V13.125Z" fill="black"/>
<path fill-rule="evenodd" clip-rule="evenodd" d="M2 6.5C2 5.11975 3.11975 4 4.5 4H19.5C20.8802 4 22 5.11975 22 6.5V16.5C22 17.8802 20.8802 19 19.5 19H4.5C3.11975 19 2 17.8802 2 16.5V6.5ZM4.5 5.75C4.08625 5.75 3.75 6.08625 3.75 6.5V8.25H20.25V6.5C20.25 6.08625 19.9138 5.75 19.5 5.75H4.5ZM3.75 16.5V10H20.25V16.5C20.25 16.9138 19.9138 17.25 19.5 17.25H4.5C4.08625 17.25 3.75 16.9138 3.75 16.5Z" fill="black"/>
</svg>

<svg width="24" height="24" fill="none" xmlns="http://www.w3.org/2000/svg"><path d="M9 13.125H6v1.75h3v-1.75z" fill="#000"/><path fill-rule="evenodd" clip-rule="evenodd" d="M2 6.5A2.5 2.5 0 0 1 4.5 4h15A2.5 2.5 0 0 1 22 6.5v10a2.5 2.5 0 0 1-2.5 2.5h-15A2.5 2.5 0 0 1 2 16.5v-10zm2.5-.75a.75.75 0 0 0-.75.75v1.75h16.5V6.5a.75.75 0 0 0-.75-.75h-15zM3.75 16.5V10h16.5v6.5a.75.75 0 0 1-.75.75h-15a.75.75 0 0 1-.75-.75z" fill="#000"/></svg>
